src/images/icons/external-link.svg

<svg width="16" height="16" viewBox="0 0 16 16" fill="none" xmlns="http://www.w3.org/2000/svg">
<path fill-rule="evenodd" clip-rule="evenodd" d="M3.33203 4.66683C3.15522 4.66683 2.98565 4.73707 2.86063 4.86209C2.7356 4.98712 2.66536 5.15668 2.66536 5.3335V12.6668C2.66536 12.8436 2.7356 13.0132 2.86063 13.1382C2.98565 13.2633 3.15522 13.3335 3.33203 13.3335H10.6654C10.8422 13.3335 11.0117 13.2633 11.1368 13.1382C11.2618 13.0132 11.332 12.8436 11.332 12.6668V8.66683C11.332 8.29864 11.6305 8.00016 11.9987 8.00016C12.3669 8.00016 12.6654 8.29864 12.6654 8.66683V12.6668C12.6654 13.1973 12.4546 13.706 12.0796 14.081C11.7045 14.4561 11.1958 14.6668 10.6654 14.6668H3.33203C2.8016 14.6668 2.29289 14.4561 1.91782 14.081C1.54274 13.706 1.33203 13.1973 1.33203 12.6668V5.3335C1.33203 4.80306 1.54274 4.29436 1.91782 3.91928C2.29289 3.54421 2.8016 3.3335 3.33203 3.3335H7.33203C7.70022 3.3335 7.9987 3.63197 7.9987 4.00016C7.9987 4.36835 7.70022 4.66683 7.33203 4.66683H3.33203Z" fill="#D0D0DA"/>
<path fill-rule="evenodd" clip-rule="evenodd" d="M9.33203 2.00016C9.33203 1.63197 9.63051 1.3335 9.9987 1.3335H13.9987C14.3669 1.3335 14.6654 1.63197 14.6654 2.00016V6.00016C14.6654 6.36835 14.3669 6.66683 13.9987 6.66683C13.6305 6.66683 13.332 6.36835 13.332 6.00016V2.66683H9.9987C9.63051 2.66683 9.33203 2.36835 9.33203 2.00016Z" fill="#D0D0DA"/>
<path fill-rule="evenodd" clip-rule="evenodd" d="M14.4714 1.52876C14.7318 1.78911 14.7318 2.21122 14.4714 2.47157L7.13807 9.8049C6.87772 10.0652 6.45561 10.0652 6.19526 9.8049C5.93491 9.54455 5.93491 9.12244 6.19526 8.86209L13.5286 1.52876C13.7889 1.26841 14.2111 1.26841 14.4714 1.52876Z" fill="#D0D0DA"/>
</svg>

<svg xmlns="http://www.w3.org/2000/svg" width="16" height="16" fill="none"><path fill="#D0D0DA" fill-rule="evenodd" d="M3.332 4.667a.667.667 0 0 0-.667.667v7.333a.667.667 0 0 0 .667.667h7.333a.667.667 0 0 0 .667-.667v-4a.667.667 0 0 1 1.333 0v4a2 2 0 0 1-2 2H3.332a2 2 0 0 1-2-2V5.334a2 2 0 0 1 2-2h4a.667.667 0 1 1 0 1.333zM9.332 2c0-.368.299-.667.667-.667h4c.368 0 .666.299.666.667v4a.667.667 0 0 1-1.333 0V2.667H9.999A.667.667 0 0 1 9.332 2" clip-rule="evenodd"/><path fill="#D0D0DA" fill-rule="evenodd" d="M14.471 1.529c.26.26.26.682 0 .943L7.138 9.805a.667.667 0 0 1-.943-.943L13.53 1.53c.26-.26.682-.26.942 0" clip-rule="evenodd"/></svg>
